RP-Subscribe2/img/lock.svg

<?xml version="1.0" encoding="UTF-8"?>
<svg width="34px" height="34px" viewBox="0 0 34 34" version="1.1" xmlns="http://www.w3.org/2000/svg" xmlns:xlink="http://www.w3.org/1999/xlink">
    <!-- Generator: Sketch 44.1 (41455) - http://www.bohemiancoding.com/sketch -->
    <title>lock</title>
    <desc>Created with Sketch.</desc>
    <defs></defs>
    <g id="Page-1" stroke="none" stroke-width="1" fill="none" fill-rule="evenodd">
        <g id="lock" fill-rule="nonzero">
            <g id="Shape">
                <path d="M17,32.5 C8.43958638,32.5 1.5,25.5604136 1.5,17 C1.5,8.43958638 8.43958638,1.5 17,1.5 C25.5604136,1.5 32.5,8.43958638 32.5,17 C32.4889815,25.5558455 25.5558455,32.4889815 17,32.5 Z" fill="#F5C419"></path>
                <path d="M17,3 C24.7319865,3 31,9.2680135 31,17 C31,24.7319865 24.7319865,31 17,31 C9.2680135,31 3,24.7319865 3,17 C3,9.2680135 9.2680135,3 17,3 L17,3 Z M17,1.77635684e-15 C7.61115925,-5.74900688e-16 1.14980138e-15,7.61115925 0,17 C-1.14980138e-15,26.3888407 7.61115925,34 17,34 C26.3888407,34 34,26.3888407 34,17 C34,12.4913197 32.2089337,8.16730315 29.0208153,4.97918472 C25.8326968,1.79106629 21.5086803,2.76077047e-16 17,0 L17,1.77635684e-15 Z" fill="#FFFFFF"></path>
                <path d="M21,15.94 L20.6,15.94 L20.6,14.48 C20.6700555,13.1540247 20.002493,11.8976651 18.8644218,11.2136239 C17.7263507,10.5295827 16.3036493,10.5295827 15.1655782,11.2136239 C14.027507,11.8976651 13.3599445,13.1540247 13.43,14.48 L13.43,15.94 L13,15.94 C12.3372583,15.94 11.8,16.4772583 11.8,17.14 L11.8,21.92 C11.8,22.5827417 12.3372583,23.12 13,23.12 L21,23.12 C21.6627417,23.12 22.2,22.5827417 22.2,21.92 L22.2,21.92 L22.2,17.14 C22.2,16.4772583 21.6627417,15.94 21,15.94 L21,15.94 Z M17.41,19.85 L17.41,21.12 C17.41,21.3409139 17.2309139,21.52 17.01,21.52 C16.7890861,21.52 16.61,21.3409139 16.61,21.12 L16.61,19.85 C16.0607919,19.6530886 15.7328009,19.0896912 15.8327334,18.514872 C15.9326659,17.9400528 16.4315588,17.5204094 17.015,17.5204094 C17.5984412,17.5204094 18.0973341,17.9400528 18.1972666,18.514872 C18.2971991,19.0896912 17.9692081,19.6530886 17.42,19.85 L17.42,19.85 L17.41,19.85 Z M19,15.94 L15,15.94 L15,14.48 C15,13.3754305 15.8954305,12.48 17,12.48 C18.1045695,12.48 19,13.3754305 19,14.48 L19,15.94 L19,15.94 L19,15.94 Z" fill="#FFFFFF"></path>
            </g>
        </g>
    </g>
</svg>

<svg id="Layer_1" data-name="Layer 1" xmlns="http://www.w3.org/2000/svg" viewBox="0 0 34 34"><defs><style>.cls-1{fill:#f5c419;}.cls-2{fill:#fff;}</style></defs><title>lock</title><path class="cls-1" d="M17,32.5A15.5,15.5,0,1,1,32.5,17,15.52,15.52,0,0,1,17,32.5Z" transform="translate(0 0)"/><path class="cls-2" d="M17,3A14,14,0,1,1,3,17,14,14,0,0,1,17,3m0-3A17,17,0,1,0,34,17,17,17,0,0,0,17,0h0Z" transform="translate(0 0)"/><path class="cls-2" d="M21,15.94H20.6V14.48a3.59,3.59,0,1,0-7.17,0v1.46H13a1.2,1.2,0,0,0-1.2,1.2v4.78a1.2,1.2,0,0,0,1.2,1.2h8a1.2,1.2,0,0,0,1.2-1.2h0V17.14a1.2,1.2,0,0,0-1.2-1.2h0Zm-3.59,3.91v1.27a0.4,0.4,0,0,1-.8,0V19.85a1.2,1.2,0,1,1,.81,0h0ZM19,15.94H15V14.48a2,2,0,0,1,4,0v1.46h0Z" transform="translate(0 0)"/></svg>
